icons/svg/seamark/mooring_deviationdolphin.svg

<?xml version="1.0" encoding="UTF-8" standalone="no"?>
<svg
   xmlns:dc="http://purl.org/dc/elements/1.1/"
   xmlns:cc="http://creativecommons.org/ns#"
   xmlns:rdf="http://www.w3.org/1999/02/22-rdf-syntax-ns#"
   xmlns:svg="http://www.w3.org/2000/svg"
   xmlns="http://www.w3.org/2000/svg"
   xmlns:sodipodi="http://sodipodi.sourceforge.net/DTD/sodipodi-0.dtd"
   xmlns:inkscape="http://www.inkscape.org/namespaces/inkscape"
   width="320"
   height="320"
   id="svg2"
   version="1.1"
   inkscape:version="0.48.4 r9939"
   sodipodi:docname="mooring_deviationdolphin.svg">
  <defs
     id="defs13">
    <inkscape:path-effect
       effect="gears"
       id="path-effect3774"
       is_visible="true"
       teeth="6"
       phi="-1.2" />
    <inkscape:path-effect
       effect="bend_path"
       id="path-effect3772"
       is_visible="false"
       bendpath="m 95.790098,316.51174 c 144.429032,-206.42506 223.313032,-11.7428 339.548092,0"
       prop_scale="1.19"
       scale_y_rel="false"
       vertical="false"
       bendpath-nodetypes="cc" />
    <inkscape:path-effect
       effect="spiro"
       id="path-effect3775-7"
       is_visible="true" />
    <inkscape:path-effect
       effect="spiro"
       id="path-effect3775-7-9"
       is_visible="true" />
    <inkscape:path-effect
       effect="spiro"
       id="path-effect3775-7-4"
       is_visible="true" />
    <inkscape:path-effect
       effect="spiro"
       id="path-effect3775-7-4-2"
       is_visible="true" />
  </defs>
  <sodipodi:namedview
     pagecolor="#ffffff"
     bordercolor="#666666"
     borderopacity="1"
     objecttolerance="10"
     gridtolerance="10"
     guidetolerance="10"
     inkscape:pageopacity="0"
     inkscape:pageshadow="2"
     inkscape:window-width="1920"
     inkscape:window-height="1004"
     id="namedview11"
     showgrid="true"
     inkscape:zoom="1.1508772"
     inkscape:cx="-62.89972"
     inkscape:cy="220.84376"
     inkscape:window-x="1680"
     inkscape:window-y="0"
     inkscape:window-maximized="1"
     inkscape:current-layer="svg2"
     inkscape:snap-bbox="true"
     inkscape:object-nodes="true"
     inkscape:snap-midpoints="true"
     inkscape:snap-grids="true"
     inkscape:snap-bbox-edge-midpoints="true"
     showguides="true"
     inkscape:guide-bbox="true">
    <inkscape:grid
       type="xygrid"
       id="grid2990"
       empspacing="5"
       visible="true"
       enabled="true"
       snapvisiblegridlinesonly="true"
       spacingx="10px"
       spacingy="10px"
       dotted="false" />
    <sodipodi:guide
       orientation="1,0"
       position="55.202458,260.58927"
       id="guide3872" />
    <sodipodi:guide
       orientation="1,0"
       position="265.17816,340"
       id="guide3874" />
    <sodipodi:guide
       orientation="0,1"
       position="317.80107,264.96094"
       id="guide3876" />
    <sodipodi:guide
       orientation="0,1"
       position="325.098,54.759006"
       id="guide3878" />
  </sodipodi:namedview>
  <metadata
     id="metadata2975">image/svg+xmlen<rdf:RDF>
  <cc:Work
     rdf:about="">
    <dc:format>image/svg+xml</dc:format>
    <dc:type
       rdf:resource="http://purl.org/dc/dcmitype/StillImage" />
    <dc:title />
  </cc:Work>
</rdf:RDF>
</metadata>
  <path
     sodipodi:type="inkscape:offset"
     inkscape:radius="13.265437"
     inkscape:original="M 72.375 100 C 49.02736 100 30 119.02736 30 142.375 C 30 165.72263 49.02736 184.75 72.375 184.75 C 81.96366 184.75 90.82323 181.52656 97.9375 176.125 L 86.4375 214.5 L 70 214.5 L 70 224.5 L 250 224.5 L 250 214.5 L 233.5625 214.5 L 204.78125 118.5625 L 203.71875 115 L 200 115 L 165 115 L 165 100 L 155 100 L 155 115 L 120 115 L 116.28125 115 L 115.21875 118.5625 L 112.3125 128.21875 C 106.46124 111.806 90.75632 100 72.375 100 z M 72.375 110 C 90.31823 110 104.78125 124.43176 104.78125 142.375 C 104.78125 160.31822 90.31823 174.78125 72.375 174.78125 C 54.43176 174.78125 40 160.31822 40 142.375 C 40 124.43176 54.43176 110 72.375 110 z "
     style="opacity:0.42608696;color:#000000;fill:#acd8f3;fill-opacity:1;fill-rule:nonzero;stroke:#a35151;stroke-width:0;stroke-linecap:round;stroke-linejoin:miter;stroke-miterlimit:4;stroke-opacity:1;stroke-dasharray:none;stroke-dashoffset:0;marker:none;visibility:visible;display:inline;overflow:visible;enable-background:accumulate"
     id="path3064"
     d="m 72.375,86.75 c -30.554828,0 -55.625,25.07017 -55.625,55.625 0,30.55482 25.070168,55.625 55.625,55.625 1.793258,0 3.527258,-0.26832 5.28125,-0.4375 L 76.5625,201.25 70,201.25 A 13.266764,13.266764 0 0 0 56.75,214.5 l 0,10 A 13.266764,13.266764 0 0 0 70,237.75 l 180,0 a 13.266764,13.266764 0 0 0 13.25,-13.25 l 0,-10 A 13.266764,13.266764 0 0 0 250,201.25 l -6.5625,0 -25.9375,-86.46875 0,-0.0312 -1.0625,-3.53125 A 13.266764,13.266764 0 0 0 203.71875,101.75 l -3.71875,0 -21.75,0 0,-1.75 A 13.266764,13.266764 0 0 0 165,86.75 l -10,0 A 13.266764,13.266764 0 0 0 141.75,100 l 0,1.75 -21.75,0 -3.71875,0 a 13.266764,13.266764 0 0 0 -4.96875,0.96875 C 101.24896,92.842001 87.48484,86.75 72.375,86.75 z m 0,36.5 c 10.830293,0 19.15625,8.3101 19.15625,19.125 0,10.81487 -8.341369,19.15625 -19.15625,19.15625 -10.814895,0 -19.125,-8.32597 -19.125,-19.15625 0,-10.83031 8.294693,-19.125 19.125,-19.125 z" />
  <path
     style="color:#000000;fill:#bdbdbd;fill-opacity:1;fill-rule:nonzero;stroke:#a35151;stroke-width:0;stroke-linecap:round;stroke-linejoin:miter;stroke-miterlimit:4;stroke-opacity:1;stroke-dashoffset:0;marker:none;visibility:visible;display:inline;overflow:visible;enable-background:accumulate"
     d="m 119.50368,120 80.37719,0 33.34093,100 -146.4436,-0.44624 z"
     id="rect2987"
     inkscape:connector-curvature="0"
     sodipodi:nodetypes="ccccc" />
  <path
     style="fill:none;stroke:#000000;stroke-width:10;stroke-linecap:butt;stroke-linejoin:miter;stroke-miterlimit:4;stroke-opacity:1;stroke-dasharray:none"
     d="m 70,219.5 180,0"
     id="path3801"
     inkscape:connector-curvature="0" />
  <path
     style="fill:none;stroke:#000000;stroke-width:10;stroke-linecap:butt;stroke-linejoin:miter;stroke-miterlimit:4;stroke-opacity:1;stroke-dasharray:none"
     d="m 90,220 30,-100 80,0 30,100"
     inkscape:connector-curvature="0"
     sodipodi:nodetypes="cccc"
     id="path3803" />
  <path
     style="fill:none;stroke:#000000;stroke-width:10;stroke-linecap:butt;stroke-linejoin:miter;stroke-miterlimit:4;stroke-opacity:1;stroke-dasharray:none"
     d="m 160,100 0,119.49999"
     id="path3805"
     inkscape:connector-curvature="0" />
  <path
     sodipodi:type="arc"
     style="color:#000000;fill:none;stroke:#000000;stroke-width:11.236619;stroke-linecap:butt;stroke-linejoin:miter;stroke-miterlimit:4;stroke-opacity:1;stroke-dasharray:none;stroke-dashoffset:0;marker:none;visibility:visible;display:inline;overflow:visible;enable-background:accumulate"
     id="path2993"
     sodipodi:cx="142.00458"
     sodipodi:cy="152.00458"
     sodipodi:rx="42.00457"
     sodipodi:ry="42.00457"
     d="m 184.00915,152.00458 a 42.00457,42.00457 0 1 1 -84.00914,0 42.00457,42.00457 0 1 1 84.00914,0 z"
     transform="matrix(0.88994746,0,0,0.88994746,-53.994753,7.1057729)" />
</svg>

<svg width="320" height="320" viewBox="0 0 320 320" fill="none" xmlns="http://www.w3.org/2000/svg">
<path opacity="0.426087" d="M72.375 86.75C41.8202 86.75 16.75 111.82 16.75 142.375C16.75 172.93 41.8202 198 72.375 198C74.1683 198 75.9023 197.732 77.6562 197.562L76.5625 201.25H70C66.4872 201.254 63.1196 202.652 60.6357 205.136C58.1518 207.62 56.7544 210.987 56.75 214.5V224.5C56.7544 228.013 58.1518 231.38 60.6357 233.864C63.1196 236.348 66.4872 237.746 70 237.75H250C253.513 237.746 256.88 236.348 259.364 233.864C261.848 231.38 263.246 228.013 263.25 224.5V214.5C263.246 210.987 261.848 207.62 259.364 205.136C256.88 202.652 253.513 201.254 250 201.25H243.438L217.5 114.781V114.75L216.438 111.219C215.62 108.481 213.94 106.081 211.648 104.375C209.357 102.669 206.576 101.748 203.719 101.75H200H178.25V100C178.246 96.4872 176.848 93.1196 174.364 90.6357C171.88 88.1518 168.513 86.7544 165 86.75H155C151.487 86.7544 148.12 88.1518 145.636 90.6357C143.152 93.1196 141.754 96.4872 141.75 100V101.75H120H116.281C114.578 101.751 112.891 102.08 111.312 102.719C101.249 92.842 87.4848 86.75 72.375 86.75ZM72.375 123.25C83.2053 123.25 91.5312 131.56 91.5312 142.375C91.5312 153.19 83.1899 161.531 72.375 161.531C61.5601 161.531 53.25 153.205 53.25 142.375C53.25 131.545 61.5447 123.25 72.375 123.25Z" fill="#ACD8F3"/>
<path d="M119.504 120H199.881L233.222 220L86.7783 219.554L119.504 120Z" fill="#BDBDBD"/>
<path d="M70 219.5H250" stroke="black" stroke-width="10"/>
<path d="M90 220L120 120H200L230 220" stroke="black" stroke-width="10"/>
<path d="M160 100V219.5" stroke="black" stroke-width="10"/>
<path d="M109.764 142.382C109.764 152.296 105.825 161.804 98.8148 168.815C91.8044 175.825 82.2961 179.764 72.3819 179.764C62.4676 179.764 52.9594 175.825 45.9489 168.815C38.9384 161.804 35 152.296 35 142.382C35 132.468 38.9384 122.959 45.9489 115.949C52.9594 108.938 62.4676 105 72.3819 105C82.2961 105 91.8044 108.938 98.8148 115.949C105.825 122.959 109.764 132.468 109.764 142.382V142.382Z" stroke="black" stroke-width="10"/>
</svg>
